Rowaita-Dark/16x16/actions/font-select.svg

<svg xmlns="http://www.w3.org/2000/svg" width="16" height="16" viewBox="0 0 16 16">
 <defs>
  <style id="current-color-scheme" type="text/css">
   .ColorScheme-Text { color:#dfdfdf; } .ColorScheme-Highlight { color:#4285f4; }
  </style>
 </defs>
 <path style="fill:currentColor" class="ColorScheme-Text" d="M 6 3 L 5.9921875 5 L 8.9140625 5.0117188 L 8.9160156 5.0117188 C 8.8608156 5.0117188 9 5.17107 9 5.09375 L 9 6.0175781 L 7.9960938 6.0175781 C 6.2801937 6.0175781 4.9660063 7.1430531 4.9414062 8.5019531 C 4.9291063 9.1814031 5.2472344 9.8649188 5.8027344 10.324219 C 6.3582344 10.783489 7.1180937 11.023438 7.9960938 11.023438 L 11 11.023438 L 11 5.09375 C 11 3.92255 10.112866 3.0117188 8.9160156 3.0117188 L 6.0058594 3 L 6 3 z M -0.00390625 5 L -0.00390625 11 L 3.9960938 8 L -0.00390625 5 z M 15.996094 5 L 11.996094 8 L 15.996094 11 L 15.996094 5 z M 7.9960938 8.0175781 L 9 8.0175781 L 9 9.0234375 L 7.9960938 9.0234375 C 7.4766838 9.0234375 7.2023019 8.88554 7.0761719 8.78125 C 6.9500319 8.67696 6.9401062 8.6090694 6.9414062 8.5371094 C 6.9444063 8.3931794 7.0262937 8.0175781 7.9960938 8.0175781 z"/>
</svg>

<?xml version="1.0" encoding="UTF-8" standalone="no"?>
<svg
   height="16px"
   viewBox="0 0 16 16"
   width="16px"
   version="1.1"
   id="svg10"
   sodipodi:docname="font-select.svg"
   inkscape:version="1.2.1 (9c6d41e410, 2022-07-14)"
   xmlns:inkscape="http://www.inkscape.org/namespaces/inkscape"
   xmlns:sodipodi="http://sodipodi.sourceforge.net/DTD/sodipodi-0.dtd"
   xmlns="http://www.w3.org/2000/svg"
   xmlns:svg="http://www.w3.org/2000/svg">
  <defs
     id="defs14" />
  <sodipodi:namedview
     id="namedview12"
     pagecolor="#ffffff"
     bordercolor="#000000"
     borderopacity="0.25"
     inkscape:showpageshadow="2"
     inkscape:pageopacity="0.0"
     inkscape:pagecheckerboard="0"
     inkscape:deskcolor="#d1d1d1"
     showgrid="false"
     inkscape:zoom="16.046875"
     inkscape:cx="22.558909"
     inkscape:cy="15.298929"
     inkscape:current-layer="svg10" />
  <g
     fill="#2e3436"
     id="g8"
     style="fill:#dfdfdf;fill-opacity:1">
    <path
       d="m 0 5 v 6 h 1 v -0.007812 c 0.265625 0.003906 0.519531 -0.101563 0.707031 -0.285157 l 2 -2 c 0.390625 -0.390625 0.390625 -1.023437 0 -1.414062 l -2 -2 c -0.1875 -0.183594 -0.441406 -0.289063 -0.707031 -0.285157 v -0.007812 z m 0 0"
       id="path2"
       style="fill:#dfdfdf;fill-opacity:1" />
    <path
       d="m 16 5 v 6 h -1 v -0.007812 c -0.265625 0.003906 -0.519531 -0.101563 -0.707031 -0.285157 l -2 -2 c -0.390625 -0.390625 -0.390625 -1.023437 0 -1.414062 l 2 -2 c 0.1875 -0.183594 0.441406 -0.289063 0.707031 -0.289063 v -0.003906 z m 0 0"
       id="path4"
       style="fill:#dfdfdf;fill-opacity:1" />
    <path
       d="m 7 3.011719 v 2 h 1.917969 c -0.054688 0 0.085937 0.160156 0.085937 0.082031 v 0.921875 h -1.003906 c -1.714844 0 -3.03125 1.128906 -3.054688 2.484375 c -0.011718 0.679688 0.304688 1.363281 0.859376 1.824219 c 0.558593 0.460937 1.316406 0.699219 2.195312 0.699219 h 3.003906 v -5.929688 c 0 -1.171875 -0.886718 -2.082031 -2.085937 -2.082031 z m 1 5.007812 h 1.003906 v 1.003907 h -1.003906 c -0.519531 0 -0.792969 -0.136719 -0.921875 -0.242188 c -0.125 -0.105469 -0.132813 -0.171875 -0.132813 -0.242188 c 0.003907 -0.144531 0.085938 -0.519531 1.054688 -0.519531 z m 0 0"
       id="path6"
       style="fill:#dfdfdf;fill-opacity:1" />
  </g>
</svg>
